X: 41606
T: Up Downey
R: reel
M: 4/4
K: Eminor
EFGA ~B2ed|ABGB AGFG|DEGA ~B2ef|gfeg fazD|
EFGA ~B2ed|ABGB AGFG|DEGA ~B2ed|1 BAGF EB,~B,2:|2 BAGF EB~B2||
|:gfeg fegf|egfe a2~a2|gfeg fegf|egfe B2~B2|
gfeg fegf|egfe a2~a2|bagf agfg|e3e e2ee:|
E^DEG GFGA|BA (3Bcd edBG||

